icons/action/icon_copy_xl_black.svg.svg

<?xml version="1.0" encoding="UTF-8"?>
<svg width="36px" height="36px" viewBox="0 0 36 36" version="1.1" xmlns="http://www.w3.org/2000/svg" xmlns:xlink="http://www.w3.org/1999/xlink">
    <!-- Generator: Sketch 48.2 (47327) - http://www.bohemiancoding.com/sketch -->
    <title>Slice 2</title>
    <desc>Created with Sketch.</desc>
    <defs></defs>
    <g id="NFS" stroke="none" stroke-width="1" fill="none" fill-rule="evenodd">
        <g id="icon_tool_copy__xl__black" transform="translate(1.000000, 0.000000)">
            <rect id="ph" x="0" y="0" width="36" height="36"></rect>
            <path d="M9,13.2413026 L16.3386967,6 L28.5,6 C29.8807119,6 31,7.11928813 31,8.5 L31,31.5 C31,32.8807119 29.8807119,34 28.5,34 L11.5,34 C10.1192881,34 9,32.8807119 9,31.5 L9,13.2413026 Z M10,13.758464 L10,31.4 C10,32.2836556 10.7163444,33 11.6,33 L28.4,33 C29.2836556,33 30,32.2836556 30,31.4 L30,8.6 C30,7.7163444 29.2836556,7 28.4,7 L16.7027437,7 L10,13.758464 Z" id="Combined-Shape" fill="#0A1E32"></path>
            <path d="M26,6 L25,6 L25,3.6 C25,2.7163444 24.2836556,2 23.4,2 L11.7027437,2 L5,8.75846396 L5,26.4 C5,27.2836556 5.7163444,28 6.6,28 L9,28 L9,29 L6.5,29 C5.11928813,29 4,27.8807119 4,26.5 L4,8.24130256 L11.3386967,1 L23.5,1 C24.8807119,1 26,2.11928813 26,3.5 L26,6 Z" id="Combined-Shape" fill="#0A1E32" opacity="0.300000012"></path>
            <rect id="Rectangle" fill="#0A1E32" opacity="0.300000012" x="14" y="14" width="8" height="3"></rect>
            <rect id="Rectangle-Copy" fill="#0A1E32" opacity="0.300000012" x="14" y="19" width="12" height="3"></rect>
            <circle id="Oval" fill="#0A1E32" opacity="0.3" cx="16" cy="26" r="2"></circle>
        </g>
    </g>
</svg>

<svg width="36" height="36" viewBox="0 0 36 36" xmlns="http://www.w3.org/2000/svg"><g transform="translate(1)" fill="none" fill-rule="evenodd"><path d="M0 0h36v36H0z"/><path d="M9 13.241L16.339 6H28.5A2.5 2.5 0 0 1 31 8.5v23a2.5 2.5 0 0 1-2.5 2.5h-17A2.5 2.5 0 0 1 9 31.5V13.241zm1 .517V31.4a1.6 1.6 0 0 0 1.6 1.6h16.8a1.6 1.6 0 0 0 1.6-1.6V8.6A1.6 1.6 0 0 0 28.4 7H16.703L10 13.758z" fill="#0A1E32"/><path d="M26 6h-1V3.6A1.6 1.6 0 0 0 23.4 2H11.703L5 8.758V26.4A1.6 1.6 0 0 0 6.6 28H9v1H6.5A2.5 2.5 0 0 1 4 26.5V8.241L11.339 1H23.5A2.5 2.5 0 0 1 26 3.5V6z" fill="#0A1E32" opacity=".3"/><path fill="#0A1E32" opacity=".3" d="M14 14h8v3h-8zm0 5h12v3H14z"/><circle fill="#0A1E32" opacity=".3" cx="16" cy="26" r="2"/></g></svg>
